X:19
T:T013B- The Parson & his Boots
S:Bremner's Reels, c 1757
Q:1/4=120
L:1/8
M:6/8
K:D mixolydian
G3 G2d|B2G (B/2c/2dB)|G3 Bcd|EFG AFD| G3G2d|\
B2G (B/2c/2dB)|gfe dcB|ABG AFD::\
Bcd ded|ded dcB|cde efe|efe edc|\
Bcd ded|ded def|gfe dcB|ABG AFD:|]

